64x64/apps/openoffice4-math.svg

<svg xmlns="http://www.w3.org/2000/svg" width="64" height="64" version="1">
 <circle style="opacity:0.2" cx="32" cy="33" r="28"/>
 <circle style="fill:#8e8e8e" cx="32" cy="32" r="28"/>
 <path style="opacity:0.2" d="M 31.951172,21.994141 27.572266,37.111328 24.320312,29.003906 H 18 v 2.994141 h 4.480469 l 4.378906,10.996094 h 1.941406 L 34.009766,24.996094 H 43 V 21.994141 Z M 33.445312,30 38.207031,36.099609 33,43 h 2.599609 L 39.5,37.767578 43.400391,43 H 46 L 40.898438,36.222656 45.748047,30 H 43.150391 L 39.597656,34.554688 36.041016,30 Z"/>
 <path style="fill:#f4f4f7" d="M 31.951172 20.994141 L 27.572266 36.111328 L 24.320312 28.003906 L 18 28.003906 L 18 30.998047 L 22.480469 30.998047 L 26.859375 41.994141 L 28.800781 41.994141 L 34.009766 23.996094 L 43 23.996094 L 43 20.994141 L 31.951172 20.994141 z M 33.445312 29 L 38.207031 35.099609 L 33 42 L 35.599609 42 L 39.5 36.767578 L 43.400391 42 L 46 42 L 40.898438 35.222656 L 45.748047 29 L 43.150391 29 L 39.597656 33.554688 L 36.041016 29 L 33.445312 29 z"/>
 <path style="opacity:0.2;fill:#f4f4f7" d="M 32 4 A 28 28 0 0 0 4 32 A 28 28 0 0 0 4.0214844 32.585938 A 28 28 0 0 1 32 5 A 28 28 0 0 1 59.978516 32.414062 A 28 28 0 0 0 60 32 A 28 28 0 0 0 32 4 z"/>
</svg>

<svg xmlns="http://www.w3.org/2000/svg" width="64" height="64" version="1"><circle style="opacity:.2" cx="32" cy="33" r="28"/><circle style="fill:#8e8e8e" cx="32" cy="32" r="28"/><path style="opacity:.2" d="m31.951 21.994-4.379 15.117-3.252-8.107H18v2.994h4.48l4.38 10.996h1.94l5.21-17.998H43v-3.002zM33.445 30l4.762 6.1L33 43h2.6l3.9-5.232L43.4 43H46l-5.102-6.777L45.748 30H43.15l-3.552 4.555L36.04 30z"/><path style="fill:#f4f4f7" d="m31.951 20.994-4.379 15.117-3.252-8.107H18v2.994h4.48l4.38 10.996h1.94l5.21-17.998H43v-3.002H31.951zM33.445 29l4.762 6.1L33 42h2.6l3.9-5.232L43.4 42H46l-5.102-6.777L45.748 29H43.15l-3.552 4.555L36.04 29h-2.596z"/><path style="opacity:.2;fill:#f4f4f7" d="M32 4A28 28 0 0 0 4 32a28 28 0 0 0 .021.586A28 28 0 0 1 32 5a28 28 0 0 1 27.979 27.414A28 28 0 0 0 60 32 28 28 0 0 0 32 4z"/></svg>
